X:193
T: Zhai cha
N: C1685
O: China,Jiangxi, Ganxian
S: IV, 248]
R: Wuge, Caicha, chunjing tian]
M: 2/4
L: 1/16
K: Bb
f4gbgf | d8 | d2cdfgdc | b8 |
f2gfd4 | f2gfd4 | d2cdfgdc | b8 |
gbfgb3g | bgb4c2 | dfgfd4 |
dfgfd3c | b3cdffd | cbc6 |
gbf2gbfg | b3gb4 | dfdcbcdf | c3bc4 |
f2gfd4 | f2gfd4 | d2cdfgdc | b8 |
gbf2gbfg | b3gb4 | dfdcbcdf | c3bc4 |
f2gfd4 | f2gfd4 | d2cdfgdc | b8 |
gbffgbfg | b3gb4 | dfdcbcdf | c4dcdf | c8 |
f2gbf2d2 | b3gf4 | g2b4g2 | f4dcdg | f4
f2gbf2d2 | b3gf4 | g2b4cd | f3dc4 | gbcdcbg2 | f2d2f4

@@@ Tune index: 6748
